src/imagens/header/Logo.svg

<svg width="46" height="48" viewBox="0 0 46 48" fill="none" xmlns="http://www.w3.org/2000/svg">
<path d="M14.5055 29V19.0505H19.595L20.918 20.387V23.4245L19.595 24.761H19.3115L21.3095 29H20.486L18.5015 24.761H15.275V29H14.5055ZM15.275 24.0725H19.2845L20.162 23.1815V20.63L19.2845 19.739H15.275V24.0725ZM24.9971 29L22.3916 19.0505H23.1746L25.4831 28.271H25.7801L27.8726 19.0505H28.6016L30.7076 28.271H30.9911L33.2996 19.0505H34.0961L31.4906 29H30.1946L28.2371 20.5895L26.2931 29H24.9971Z" fill="#009974"/>
<path d="M12.9245 29V19.0505H18.365L19.769 20.468V23.6405L18.365 25.058H18.3245L20.12 29H18.7565L16.988 25.058H14.153V29H12.9245ZM14.153 23.9645H17.8115L18.5405 23.222V20.8865L17.8115 20.144H14.153V23.9645ZM23.5052 29L21.0617 19.0505H22.3577L24.3152 27.8255H24.6122L26.4617 19.0505H27.5822L29.4317 27.8255H29.7287L31.6862 19.0505H32.9822L30.5387 29H28.6082L27.0152 21.656L25.4357 29H23.5052Z" fill="#00E2AC"/>
<path d="M43.0044 33.4509L42.6066 14.2903C42.5826 13.1307 41.9624 12.0653 40.9659 11.4718L24.7396 1.80631C23.6936 1.18325 22.3925 1.17439 21.3381 1.78313L4.3761 11.5762C3.32172 12.1849 2.67885 13.3161 2.69544 14.5335L2.9528 33.4186C2.9686 34.5784 3.58114 35.6482 4.57339 36.2488L20.9681 46.1736C22.0169 46.8085 23.3283 46.8221 24.3901 46.2091L41.3241 36.4322C42.386 35.8192 43.0298 34.6767 43.0044 33.4509Z" stroke="#00E2AC" stroke-width="2"/>
<path d="M40.8383 32.8209L40.7813 15.5728C40.7779 14.5289 40.2366 13.5605 39.3492 13.0107L24.8995 4.05831C23.968 3.48122 22.7974 3.4528 21.839 3.98403L6.4217 12.53C5.46335 13.0612 4.86709 14.069 4.86289 15.1648L4.79786 32.1628C4.79387 33.2067 5.32826 34.179 6.21172 34.7351L20.8088 43.9235C21.7427 44.5113 22.9225 44.5441 23.8876 44.0092L39.2795 35.4773C40.2446 34.9423 40.8419 33.9244 40.8383 32.8209Z" stroke="#00E2AC" stroke-width="0.899999"/>
<path d="M39.1401 33.4506L40.2177 17.2732C40.2829 16.2941 39.8388 15.3505 39.0427 14.7768L26.0801 5.43454C25.2445 4.83233 24.1486 4.72892 23.2151 5.16422L8.19781 12.1669C7.26432 12.6022 6.63912 13.5082 6.56334 14.5354L5.38781 30.4703C5.31562 31.4489 5.75298 32.3956 6.54494 32.975L19.6303 42.5481C20.4674 43.1606 21.5716 43.2688 22.5117 42.8304L37.5042 35.8392C38.4443 35.4009 39.0712 34.4855 39.1401 33.4506Z" stroke="#00E2AC" stroke-width="0.5"/>
<path d="M37.4846 34.2916L39.8438 19.0708C39.9866 18.1496 39.6444 17.2199 38.9385 16.611L27.4444 6.69639C26.7035 6.05728 25.6749 5.86868 24.7555 6.20334L9.96349 11.5872C9.04402 11.9218 8.37732 12.7275 8.22056 13.6933L5.78867 28.6765C5.63932 29.5967 5.97485 30.5289 6.67638 31.1428L18.2675 41.2861C19.0091 41.935 20.0451 42.1288 20.971 41.7918L35.7386 36.4168C36.6646 36.0798 37.3336 35.2654 37.4846 34.2916Z" stroke="#00E2AC" stroke-width="0.5"/>
<path d="M35.848 34.9511L39.3411 20.7415C39.5525 19.8815 39.3057 18.9733 38.688 18.3386L28.6312 8.00379C27.9829 7.33759 27.0251 7.07394 26.1272 7.31453L11.6825 11.185C10.7846 11.4256 10.087 12.1328 9.85864 13.0339L6.31649 27.0125C6.09896 27.871 6.33931 28.781 6.95239 29.42L17.0822 39.9794C17.7302 40.6549 18.6946 40.9241 19.5989 40.6818L34.0197 36.8177C34.9239 36.5754 35.6246 35.8601 35.848 34.9511Z" stroke="#00E2AC" stroke-width="0.5"/>
<path d="M34.2449 35.439L38.7271 22.2806C38.9984 21.4842 38.84 20.6042 38.3081 19.9525L29.6461 9.33909C29.0877 8.65493 28.2031 8.32611 27.3334 8.47946L13.3428 10.9464C12.4731 11.0997 11.7543 11.7113 11.4636 12.5452L6.95395 25.481C6.677 26.2755 6.82913 27.1565 7.35642 27.8121L16.0688 38.644C16.6262 39.3369 17.5166 39.6715 18.3924 39.5171L32.36 37.0542C33.2358 36.8998 33.9581 36.2809 34.2449 35.439Z" stroke="#00E2AC" stroke-width="0.5"/>
<path d="M32.6871 35.769L38.0186 23.6871C38.3412 22.9559 38.2642 22.11 37.8147 21.4491L30.4959 10.6876C30.0241 9.99388 29.2142 9.60944 28.3784 9.68256L14.9336 10.8588C14.0979 10.9319 13.367 11.4512 13.0228 12.2163L7.6839 24.0852C7.35602 24.8141 7.42703 25.6606 7.87178 26.3246L15.2202 37.2971C15.6903 37.9991 16.5053 38.3895 17.3469 38.3158L30.7696 37.1415C31.6112 37.0679 32.3461 36.5419 32.6871 35.769Z" stroke="#00E2AC" stroke-width="0.5"/>
<path d="M31.1856 35.9521L37.2316 24.9594C37.5975 24.2941 37.5946 23.4872 37.224 22.8245L31.1886 12.0339C30.7995 11.3383 30.0648 10.9074 29.2678 10.9074L16.4464 10.9074C15.6495 10.9074 14.9147 11.3383 14.5257 12.0339L8.49029 22.8245C8.11964 23.4872 8.11676 24.2941 8.48267 24.9594L14.5286 35.9521C14.9154 36.6554 15.6544 37.0923 16.457 37.0923L29.2572 37.0923C30.0599 37.0923 30.7988 36.6554 31.1856 35.9521Z" stroke="#00E2AC" stroke-width="0.5"/>
</svg>

<svg xmlns="http://www.w3.org/2000/svg" width="46" height="48" fill="none"><path fill="#009974" d="M14.505 29v-9.95h5.09l1.323 1.337v3.037l-1.323 1.337h-.284L21.31 29h-.823l-1.985-4.239h-3.226V29h-.77Zm.77-4.927h4.01l.877-.892V20.63l-.877-.891h-4.01v4.334ZM24.997 29l-2.605-9.95h.783l2.308 9.221h.297l2.093-9.22h.729l2.106 9.22h.283l2.309-9.22h.796L31.491 29h-1.296l-1.958-8.41L26.293 29h-1.296Z"/><path fill="#00E2AC" d="M12.925 29v-9.95h5.44l1.404 1.418v3.172l-1.404 1.418h-.04L20.12 29h-1.364l-1.768-3.942h-2.835V29h-1.229Zm1.228-5.035h3.658l.73-.743v-2.335l-.73-.743h-3.658v3.82ZM23.505 29l-2.443-9.95h1.296l1.957 8.776h.297l1.85-8.776h1.12l1.85 8.776h.297l1.957-8.776h1.296L30.54 29h-1.93l-1.594-7.344L25.435 29h-1.93Z"/><path stroke="#00E2AC" stroke-width="2" d="m43.004 33.45-.397-19.16a3.362 3.362 0 0 0-1.641-2.818L24.74 1.806a3.362 3.362 0 0 0-3.402-.023L4.376 11.576a3.362 3.362 0 0 0-1.68 2.957l.257 18.886a3.362 3.362 0 0 0 1.62 2.83l16.395 9.925a3.362 3.362 0 0 0 3.422.035l16.934-9.777a3.362 3.362 0 0 0 1.68-2.981Z"/><path stroke="#00E2AC" stroke-width=".9" d="m40.838 32.82-.057-17.247a3.026 3.026 0 0 0-1.432-2.562L24.9 4.058a3.026 3.026 0 0 0-3.06-.074L6.422 12.53a3.026 3.026 0 0 0-1.56 2.635l-.064 16.998a3.026 3.026 0 0 0 1.414 2.572l14.597 9.188c.934.588 2.113.621 3.079.086l15.391-8.532a3.026 3.026 0 0 0 1.56-2.656Z"/><path stroke="#00E2AC" stroke-width=".5" d="m39.14 33.45 1.078-16.177a2.844 2.844 0 0 0-1.175-2.496L26.08 5.435a2.844 2.844 0 0 0-2.865-.27L8.198 12.166a2.844 2.844 0 0 0-1.635 2.368L5.388 30.47a2.844 2.844 0 0 0 1.157 2.505l13.085 9.573c.837.613 1.942.72 2.882.282l14.992-6.99a2.844 2.844 0 0 0 1.636-2.39Z"/><path stroke="#00E2AC" stroke-width=".5" d="m37.485 34.292 2.359-15.221c.143-.921-.2-1.851-.906-2.46L27.444 6.696a2.702 2.702 0 0 0-2.688-.493L9.963 11.587a2.702 2.702 0 0 0-1.742 2.106L5.789 28.677c-.15.92.186 1.852.887 2.466l11.591 10.143a2.702 2.702 0 0 0 2.704.506l14.768-5.375a2.702 2.702 0 0 0 1.746-2.125Z"/><path stroke="#00E2AC" stroke-width=".5" d="m35.848 34.951 3.493-14.21a2.567 2.567 0 0 0-.653-2.402L28.631 8.004a2.567 2.567 0 0 0-2.504-.69l-14.444 3.871a2.567 2.567 0 0 0-1.824 1.849L6.316 27.012a2.567 2.567 0 0 0 .636 2.408l10.13 10.56a2.567 2.567 0 0 0 2.517.702l14.42-3.864a2.567 2.567 0 0 0 1.829-1.867Z"/><path stroke="#00E2AC" stroke-width=".5" d="m34.245 35.439 4.482-13.158a2.438 2.438 0 0 0-.419-2.328L29.646 9.338a2.439 2.439 0 0 0-2.313-.86l-13.99 2.467a2.438 2.438 0 0 0-1.88 1.6L6.955 25.48a2.439 2.439 0 0 0 .402 2.331l8.713 10.832a2.439 2.439 0 0 0 2.323.873l13.968-2.463a2.438 2.438 0 0 0 1.885-1.615Z"/><path stroke="#00E2AC" stroke-width=".5" d="m32.687 35.769 5.332-12.082a2.317 2.317 0 0 0-.204-2.238l-7.32-10.761a2.317 2.317 0 0 0-2.117-1.005l-13.444 1.176a2.317 2.317 0 0 0-1.911 1.357l-5.34 11.87a2.317 2.317 0 0 0 .189 2.239l7.348 10.972a2.316 2.316 0 0 0 2.127 1.019L30.77 37.14a2.316 2.316 0 0 0 1.917-1.372Z"/><path stroke="#00E2AC" stroke-width=".5" d="m31.186 35.952 6.046-10.993a2.2 2.2 0 0 0-.008-2.134l-6.035-10.791a2.2 2.2 0 0 0-1.921-1.127H16.446a2.2 2.2 0 0 0-1.92 1.127L8.49 22.824a2.2 2.2 0 0 0-.007 2.135l6.046 10.993a2.2 2.2 0 0 0 1.928 1.14h12.8a2.2 2.2 0 0 0 1.929-1.14Z"/></svg>
